X:24
T:Duke Street Continued
S:John Moore's Book 3
Z:Transcribed by John Adams 05/2021  
%%VWML:Moore1-4495-p42-0
F:https://www.vwml.org/record/Moore3/4495/p42
M:none
L:1/4
K:Fmaj
V:1
z4|z4|z4||A2BB|c3d|c2cB|A4|]
V:2
f2f2|f2(ef)|e4||f2fg|a3g|f2e2|f4|]
V:3 dyn=up
(FA)(cf)|(dc)(BA)|G4||!f!c2d[eg]|f3B|A2G2|F4|]
V:4 clef=bass
(A,,C,)(F,A,)|(B,A,)(G,F,)|C,4||D,2(B,G,)|F,3B,,|C,2C,2| [F,4F,,4]|]

